assets/icons/24px/stroke/landing-24px.svg

<svg width="24" height="24" viewBox="0 0 24 24" fill="none" xmlns="http://www.w3.org/2000/svg">
<g clip-path="url(#clip0_878_22305)">
<path fill-rule="evenodd" clip-rule="evenodd" d="M20.5 22L3 22C2.44772 22 2 21.5523 2 21C2 20.4477 2.44771 20 3 20L20.5 20C21.0523 20 21.5 20.4477 21.5 21C21.5 21.5523 21.0523 22 20.5 22Z" fill="white"/>
<path fill-rule="evenodd" clip-rule="evenodd" d="M14.3304 5.27494L16.2608 8.73671C16.594 9.33429 16.6673 9.4439 16.7531 9.52507C16.8389 9.60624 16.9524 9.67328 17.5675 9.97283L20.2757 11.2916C21.6873 11.979 22.2996 13.662 21.6596 15.0957C21.0441 16.4746 19.4767 17.154 18.0496 16.6605L5.05946 12.1685C4.59846 12.0091 4.19442 11.8694 3.86708 11.7238C3.51594 11.5675 3.18364 11.3757 2.89523 11.0777C2.66957 10.8446 2.48323 10.5764 2.34346 10.2836C2.16482 9.90934 2.10094 9.53099 2.07699 9.1474C2.05467 8.78983 2.06469 8.36246 2.07611 7.87484L2.08182 7.63105C2.10663 6.5699 2.12682 5.7062 2.19603 5.07424C2.2313 4.75214 2.28459 4.43301 2.38096 4.15135C2.47549 3.87508 2.64794 3.52635 2.9951 3.28213C3.42686 2.9784 3.96119 2.85768 4.4816 2.9463C4.90003 3.01756 5.20564 3.25829 5.40976 3.46708C5.61786 3.67995 5.80317 3.94518 5.97349 4.22084C6.30764 4.76166 6.69718 5.53279 7.17577 6.4802L7.19937 6.52693C7.27115 6.66902 7.30735 6.73992 7.33621 6.78996C7.33691 6.79118 7.33759 6.79236 7.33825 6.79349C7.33948 6.79395 7.34076 6.79441 7.34209 6.7949C7.39638 6.81462 7.47249 6.83796 7.62488 6.88398L8.45755 7.1354C8.86002 7.25692 9.0905 7.32527 9.25889 7.35823C9.26578 7.35958 9.27233 7.36081 9.27852 7.36194C9.27949 7.35573 9.28048 7.34915 9.28148 7.34219C9.30583 7.17234 9.31721 6.93221 9.33504 6.51217L9.33724 6.46052C9.3761 5.54482 9.40817 4.78936 9.48142 4.23011C9.51902 3.94306 9.57358 3.65393 9.66793 3.39429C9.76185 3.13585 9.92458 2.8244 10.2314 2.59308C10.6773 2.25683 11.2436 2.12238 11.7931 2.22226C12.1711 2.29097 12.4565 2.49602 12.6566 2.68466C12.8576 2.87417 13.0363 3.10791 13.1989 3.34741C13.5158 3.81404 13.884 4.47445 14.3304 5.27494ZM11.2675 4.12499C11.2675 4.12494 11.2686 4.12567 11.2706 4.12734ZM11.4803 4.379C11.5003 4.40689 11.5216 4.43745 11.5443 4.47091C11.8054 4.85549 12.131 5.43728 12.6088 6.29415L14.514 9.71077C14.5312 9.74166 14.5483 9.77233 14.5652 9.80277C14.8176 10.2567 15.0412 10.6588 15.3787 10.978C15.7161 11.2972 16.13 11.4981 16.5972 11.725C16.6286 11.7402 16.6601 11.7555 16.6919 11.771L19.4001 13.0897C19.842 13.3049 20.0336 13.8317 19.8333 14.2805C19.6406 14.7121 19.15 14.9248 18.7033 14.7704L5.74976 10.291C5.24132 10.1152 4.91958 10.003 4.68018 9.8965C4.45594 9.79671 4.37601 9.73187 4.33229 9.6867C4.25707 9.60899 4.19496 9.5196 4.14837 9.422C4.12129 9.36527 4.0884 9.26774 4.07311 9.02277C4.05678 8.76126 4.06389 8.4206 4.07648 7.88276L4.08005 7.73014C4.10639 6.60425 4.12547 5.8277 4.18414 5.29195C4.1894 5.24391 4.19481 5.19966 4.2003 5.15895C4.22275 5.19335 4.24665 5.23098 4.27206 5.27209C4.55535 5.73059 4.90642 6.42351 5.41422 7.42873C5.42329 7.44668 5.43256 7.46517 5.44205 7.48411C5.54532 7.69019 5.67565 7.95027 5.87667 8.16465C5.98571 8.28094 6.10827 8.38378 6.24173 8.47097C6.48776 8.63171 6.76652 8.7149 6.9874 8.78081C7.0077 8.78687 7.02752 8.79279 7.04677 8.7986L7.91994 9.06225C8.26728 9.16717 8.59564 9.26637 8.87471 9.32099C9.17414 9.3796 9.54777 9.41632 9.94059 9.283C10.3098 9.15769 10.6343 8.9272 10.8743 8.61988C11.1295 8.2929 11.2179 7.92802 11.2612 7.626C11.3016 7.34451 11.3161 7.00177 11.3315 6.63924C11.332 6.6252 11.3326 6.61112 11.3332 6.59702C11.3749 5.61681 11.4041 4.95079 11.4645 4.48986C11.4697 4.44976 11.475 4.41288 11.4803 4.379Z" fill="white"/>
</g>
<defs>
<clipPath id="clip0_878_22305">
<rect width="24" height="24" fill="white"/>
</clipPath>
</defs>
</svg>

<svg width="24" height="24" fill="none" xmlns="http://www.w3.org/2000/svg"><g clip-path="url(#clip0_878_22305)"><path fill-rule="evenodd" clip-rule="evenodd" d="M20.5 22H3a1 1 0 1 1 0-2h17.5a1 1 0 1 1 0 2zM14.33 5.275l1.93 3.462c.334.597.407.707.493.788.086.081.2.148.814.448l2.709 1.319a2.911 2.911 0 0 1-2.226 5.368L5.06 12.168c-.462-.159-.866-.299-1.193-.444-.351-.156-.683-.348-.972-.646a3 3 0 0 1-.552-.794c-.178-.375-.242-.753-.266-1.137-.022-.357-.012-.785 0-1.272l.005-.244c.025-1.061.045-1.925.114-2.557.035-.322.089-.641.185-.923.094-.276.267-.625.614-.869a2 2 0 0 1 1.487-.336c.418.072.724.312.928.521.208.213.393.478.563.754.335.54.724 1.312 1.203 2.26l.023.046a6.211 6.211 0 0 0 .14.266l.003.002c.054.02.13.043.283.089l.833.251a9.688 9.688 0 0 0 .82.227 9.685 9.685 0 0 0 .057-.85l.002-.051c.04-.916.071-1.672.144-2.23.038-.288.093-.577.187-.837.094-.258.257-.57.563-.8a2 2 0 0 1 1.562-.372c.378.069.664.274.864.463.2.19.38.423.542.662.317.467.685 1.127 1.131 1.928zm-3.063-1.15l.004.002zm.213.254c.02.028.042.058.064.092.261.384.587.966 1.065 1.823l1.905 3.417.051.092c.253.454.476.856.814 1.175.337.32.751.52 1.218.747l.095.046L19.4 13.09a.911.911 0 0 1-.697 1.68L5.75 10.291c-.509-.176-.83-.288-1.07-.395-.224-.1-.304-.164-.348-.21a1 1 0 0 1-.184-.264c-.027-.057-.06-.154-.075-.4-.016-.26-.01-.601.003-1.14l.004-.152c.026-1.126.045-1.902.104-2.438a5.37 5.37 0 0 1 .016-.133c.023.034.047.072.072.113.283.459.634 1.152 1.142 2.157l.028.055c.103.206.234.466.435.68a2 2 0 0 0 .365.307c.246.16.525.244.745.31l.06.018.873.263c.347.105.676.204.955.259.3.059.673.095 1.066-.038a2 2 0 0 0 .933-.663c.255-.327.344-.692.387-.994.04-.281.055-.624.07-.987l.002-.042c.042-.98.071-1.646.131-2.107l.016-.111z" fill="#fff"/></g><defs><clipPath id="clip0_878_22305"><path fill="#fff" d="M0 0H24V24H0z"/></clipPath></defs></svg>
